X:25
T:Quaker. VWMLa.025
%%VWML:Anon2-3049-p16-0
F:http://www.vwml.org/record/Anon2/3049/p16
S:Anon. MS, late 18thC, Vaughan Williams Mem. Library
O:England;Yorkshire
Z:vmp/efdss.Simon Wilson. Reviewed PJH 2008.
M:6/8
L:1/8
Q:3/8=120
K:A
ABc E2c|d2c BAG|ABc E2E|F3 A3:|\
|:edc fed|edc Bcd|
edc fed|c3 e3|\
edc fed|edc Bcd|cde E2E|F3 A3:|
T:Le Bon Gow. VWMLa.026
T:Taste. VWMLa.026, The
R:Jig
S:Anon. MS, late 18thC, Vaughan Williams Mem. Library
O:England;Yorkshire
Z:vmp/efdss.Simon Wilson. Reviewed PJH 2008.
M:6/8
L:1/8
Q:3/8=120
K:D
d2d c2d|efe efg|d2d c2d|ecA A3|\
d2d c2d|efe efg|afd gec|d2d d3:|
|:a|f2f fdf|g2g geg|f2f fdf|ecA A2g|\
faf dfd|gbg ege|afd gec|d2d d3:|
